X: 2
T: Jacks On The Mountain, The
M: 6/8
L: 1/8
R: jig
N: tranposed up a 4th from D Major
K: Gmaj
|: f |\
ged BAG | EDE G2 D | EAA AGA | Bee def |
ged BAG | EDE G2 D | EAA AGA | dBG G2 :|
|: A |\
GBd fga | ged e2 e | dBA ABA |
[1 BED D2 A | GBd fga | ged e2 e | dBA ABA | dBG G2 :|
[2 BED D2 C | DGG GAB | dBd g2 e | dBA ABA | dBG G2 |]
